X:1
T: Gin I was a bonny lad
C:
R:Strathspey
Q: 232
K:A
M:4/4
L:1/16
|:e2|c3B A2a2 fga2 e3c|d3f e3c BB3 B3e|c3B A3a gab2 e3c|d3f e3c AA3 A2e2|
c3B A2a2 fga2 e3c|d3f e3c BB3 B3e|c3B A3a gab2 e3c|d3f e3c AA3 A2e2|
c3A e3A f3A c3A|d3f e3c BB3 B3e|c3A e3A aA3 e3c|d3f e3c AA3 A2e2|
c3A e3A f3A c3A|d3f e3c BB3 B3e|c3A e3A aA3 e3c|d3f e3c AA3 A2:|
